X:1
T: Schottisch 1870/75  GC
T:Hanny Christen. Bd.X Unterwalden II. Glarus.
T: T\"anze aus Kerns. S.6-61. S.45 (st08988) orig. G,C-Dur
T: \"Uberliefert durch Josef P\"untener (1870-1950) und Isidor Bucher
%%MIDI program 21
R:shottishe
M:2/4
L:1/16
K:G %%MIDI gchordon
"G"B2Bd "D7"c2ce | "G"d2b2 bag2 | B2Bd "D7"c2ce | "G"d2b2 bag2 | "D"f2fa "A7"e2ea | "D"d4.d'4 | f2fa "A7"e2ea | "D7"d2f2 d2z2 :: 
"Am"g3f "D7"efga |  "G0"^a4 "G"b2d2 | "D7"d2c2 f3c | "G"c2B2 Bcd2 | "Am"g3f "D7"efga | "G0"^a4"G"b2d2 | "D7"d2c2 e3d | "G"G2g2 g2z2 :: [K:C]
"C"G6ce | g2ce g2c'2 | "G7"b2b2 baf2 | "C"a2a2 age2 | G6ce | g2ce g2c'2 | "G7"b2b2 bafd | "C"c2e2 c2"_Fine"z2 :: [K:G] 
"D7"d2f2 f3e | "G"e2d2 dcB2 | "D7"d2c2 ABc2 | "G"e2d2 BAG2 | "D7"d2f2 f3e | "G"e2d2 d3g | "D7"b2a2 agf2 | "G"g2g2 g2"_>Teil C"z2 |] 
W:Parts: ABCDC
% st08988

